source/images/burst1.svg

<?xml version="1.0" encoding="UTF-8"?>
<svg width="178px" height="157px" viewBox="0 0 178 157" version="1.1" xmlns="http://www.w3.org/2000/svg" xmlns:xlink="http://www.w3.org/1999/xlink">
    <!-- Generator: Sketch 42 (36781) - http://www.bohemiancoding.com/sketch -->
    <title>Page 1</title>
    <desc>Created with Sketch.</desc>
    <defs>
        <polygon id="path-1" points="0 163.750092 177.79275 163.750092 177.79275 7.80726176 0 7.80726176"></polygon>
    </defs>
    <g id="Wireframes" stroke="none" stroke-width="1" fill="none" fill-rule="evenodd">
        <g id="STAY-CONNECTED" transform="translate(-688.000000, -240.000000)">
            <g id="Page-1" transform="translate(688.000000, 240.000000)">
                <polygon id="Fill-1" fill="#B6D806" points="103.28875 80.0387789 110.5615 80.0387789 110.5615 76.4038673 103.28875 76.4038673"></polygon>
                <polygon id="Fill-2" fill="#B6D806" points="117.83425 80.0387789 125.107 80.0387789 125.107 76.4038673 117.83425 76.4038673"></polygon>
                <polygon id="Fill-3" fill="#B6D806" points="132.3795 80.0387789 139.65225 80.0387789 139.65225 76.4038673 132.3795 76.4038673"></polygon>
                <polygon id="Fill-4" fill="#B6D806" points="146.925 80.0387789 154.19775 80.0387789 154.19775 76.4038673 146.925 76.4038673"></polygon>
                <g id="Group-39" transform="translate(0.000000, 0.000250)">
                    <g id="Group-7" fill="#B6D806">
                        <path d="M171.943225,82.3650723 L171.943225,82.3650723 C169.648725,82.2133782 167.911725,80.2308582 168.063725,77.9372027 C168.201475,75.8549694 169.860475,74.19683 171.943225,74.0591307 C174.237725,74.2108248 175.974725,76.1933448 175.822725,78.4870003 C175.684975,80.5689837 174.025975,82.227373 171.943225,82.3650723 L171.943225,82.3650723 Z M133.761475,153.139013 C132.982225,153.922724 131.921225,154.361562 130.815975,154.356814 C128.521475,154.20487 126.784475,152.2226 126.936475,149.928945 C127.074225,147.846711 128.733225,146.188572 130.815975,146.050623 C133.115475,146.05912 134.972725,147.929431 134.964225,150.228084 C134.960225,151.318433 134.528225,152.363548 133.761475,153.139013 L133.761475,153.139013 Z M50.415975,153.139013 C49.636975,153.922724 48.575725,154.361562 47.470475,154.356814 C45.175975,154.20487 43.438975,152.2226 43.590975,149.928945 C43.728725,147.846711 45.387725,146.188572 47.470475,146.050623 C49.769975,146.05912 51.627225,147.929431 51.618725,150.228084 C51.614725,151.318433 51.182725,152.363548 50.415975,153.139013 L50.415975,153.139013 Z M5.579475,82.3833156 C3.284975,82.2313716 1.548225,80.2491015 1.699975,77.955446 C1.837975,75.8732127 3.496725,74.2150733 5.579475,74.077124 C7.873975,74.2290681 9.610975,76.2115881 9.459225,78.5052436 C9.321225,80.587227 7.662475,82.2453664 5.579475,82.3833156 L5.579475,82.3833156 Z M44.543225,3.30318373 C45.322225,2.5194723 46.383225,2.0808838 47.488725,2.08563205 C49.783225,2.23732619 51.520225,4.21984621 51.368225,6.51350166 C51.230475,8.59548505 49.571475,10.2538744 47.488725,10.3915737 C45.199225,10.4073179 43.330475,8.56474637 43.314725,6.27633899 C43.307225,5.16024994 43.749975,4.08839461 44.543225,3.30318373 Z M127.888725,3.30318373 C128.667725,2.5194723 129.728725,2.0808838 130.834225,2.08563205 C133.128725,2.23732619 134.865475,4.21984621 134.713725,6.51350166 C134.575975,8.59548505 132.916975,10.2538744 130.834225,10.3915737 C128.534725,10.3830768 126.677475,8.51276551 126.685975,6.2141119 C126.689975,5.12376338 127.121725,4.0786482 127.888725,3.30318373 L127.888725,3.30318373 Z M129.906975,52.9576505 L90.561475,30.2387658 L126.034225,9.755308 L126.215975,9.97347766 L123.688725,14.3356215 L126.834225,16.1532022 L129.252225,11.9547481 L129.906975,12.0999447 L129.906975,52.9576505 Z M129.088725,144.523935 L126.924975,140.634617 L123.779475,142.451948 L126.179475,146.614165 L90.561475,126.203431 L129.943225,103.484546 L129.943225,144.324008 C129.653725,144.369492 129.368225,144.436217 129.088725,144.523935 L129.088725,144.523935 Z M10.215975,81.8562597 L46.252225,102.73932 L46.252225,144.360495 L45.943225,144.451212 L9.997725,82.2196259 L10.215975,81.8562597 Z M46.270475,12.063708 L46.270475,53.6846328 L10.215975,74.5861866 L9.997725,74.313537 L45.943225,11.9727415 L46.270475,12.063708 Z M86.924975,30.2387658 L48.070475,52.6487642 L48.070475,12.1364312 L48.452225,12.1364312 L50.797725,16.2076822 L53.943225,14.3901014 L51.688725,10.4825402 C51.797725,10.3733304 51.888725,10.2461273 51.979475,10.1189241 L86.924975,30.2387658 Z M11.252225,80.0386789 L16.015975,80.0386789 L16.015975,76.4035174 L11.252225,76.4035174 C11.252225,76.2945576 11.252225,76.1673544 11.143225,76.0583945 L46.252225,55.7931064 L46.252225,100.64934 L11.143225,80.3840518 C11.179475,80.274842 11.215975,80.1476388 11.252225,80.0386789 L11.252225,80.0386789 Z M129.906975,101.376322 L88.743225,125.149319 L48.070475,101.685208 L48.070475,54.7389945 L88.743225,31.2928776 L129.906975,55.0661241 L129.906975,101.376322 Z M53.124975,8.01070038 L125.106975,8.01070038 L125.106975,8.10141698 L88.743225,29.1484173 L52.979475,8.55599959 C53.034225,8.39230987 53.088725,8.22862014 53.143225,8.04693704 L53.124975,8.01070038 Z M51.815975,146.141589 L53.943225,142.506678 L50.797725,140.689097 L48.652225,144.324008 L48.070475,144.324008 L48.070475,103.793432 L86.924975,126.203431 L51.997725,146.341516 L51.815975,146.141589 Z M125.106975,148.395259 L53.143225,148.395259 C53.143225,148.23182 53.052225,148.049887 52.979475,147.886447 L88.743225,127.294029 L125.106975,148.304543 L125.106975,148.395259 Z M167.252225,81.9834629 L167.488725,82.2741058 L131.724975,144.142325 L131.724975,102.339468 L167.252225,81.9834629 Z M166.343225,76.1491111 C166.343225,76.2583209 166.343225,76.3672808 166.252225,76.4582473 L161.470475,76.4582473 L161.470475,80.0931589 L166.234225,80.0931589 C166.234225,80.2021188 166.234225,80.3113285 166.324975,80.4020451 L131.779725,100.394684 L131.779725,56.120236 L166.343225,76.1491111 Z M167.252225,74.5861866 L131.724975,54.0117623 L131.724975,12.2091545 L167.488725,74.2225705 L167.252225,74.5861866 Z M176.124975,74.0044008 C175.020475,72.8565735 173.500225,72.2015646 171.906975,72.18707 C171.478725,72.1895691 171.051975,72.2383011 170.634225,72.3325164 L134.924975,10.5370202 C137.314975,8.2713544 137.414975,4.4982437 135.148725,2.1091234 C134.025725,0.925309292 132.466225,0.25330673 130.834225,0.249808018 C128.218475,0.231564736 125.896225,1.91919333 125.106975,4.41202545 L53.143225,4.41202545 C52.379975,1.92394159 50.073725,0.231814643 47.470475,0.249808018 C44.166725,0.239811699 41.480475,2.90882894 41.470475,6.21136291 L41.470475,6.22935629 C41.474225,7.61234706 41.963225,8.95035439 42.852225,10.0099642 L6.924975,72.3869964 C6.507225,72.2932809 6.080475,72.2445488 5.652225,72.2415499 C2.353725,72.4234829 -0.172775,75.2441943 0.009225,78.5414802 C0.177225,81.5848596 2.607975,84.0147149 5.652225,84.1826531 C6.080475,84.180154 6.507225,84.131422 6.924975,84.0372066 L42.888725,146.432482 C41.986475,147.486844 41.484475,148.825351 41.470475,150.21284 C41.470475,153.515374 44.148725,156.192388 47.452225,156.192388 L47.470475,156.192388 C50.066975,156.202385 52.363725,154.511757 53.124975,152.030421 L125.106975,152.030421 C125.888225,154.497512 128.172725,156.178893 130.761475,156.192388 C134.064975,156.179643 136.732725,153.492133 136.719975,150.189849 C136.713975,148.617428 136.088725,147.110982 134.979725,145.996143 L134.852225,145.887183 L170.561475,84.0916866 C170.979225,84.185652 171.405975,84.234384 171.834225,84.237133 C175.137725,84.2243877 177.805475,81.5368773 177.792725,78.2343433 C177.786725,76.6621722 177.161475,75.1557269 176.052225,74.0408874 L176.124975,74.0044008 Z" id="Fill-5"></path>
                    </g>
                    <path d="M88.743225,69.9151315 L88.743225,69.9151315 C93.332225,69.9171308 97.050725,73.6375109 97.048725,78.2248218 C97.046725,82.8091338 93.329475,86.5252655 88.743225,86.5272648 C84.154225,86.5252655 80.435725,82.8048854 80.437725,78.2175745 C80.439725,73.6330126 84.156975,69.9171308 88.743225,69.9151315 M76.797725,78.2210732 C76.807725,84.8118964 82.149975,90.15218 88.743225,90.1621764 C95.340475,90.1599272 100.686725,84.8116465 100.684225,78.2168248 C100.681975,71.6252519 95.337225,66.2824691 88.743225,66.2802199 C82.149975,66.2902163 76.807725,71.6304999 76.797725,78.2210732" id="Fill-8" fill="#B6D806"></path>
                    <polygon id="Fill-10" fill="#B6D806" points="94.581 64.715796 98.21625 58.4191145 101.36575 60.2361954 97.7305 66.5328769"></polygon>
                    <polygon id="Fill-12" fill="#B6D806" points="101.857775 52.1075885 105.493025 45.810907 108.642525 47.6279879 105.007275 53.9246694"></polygon>
                    <polygon id="Fill-14" fill="#B6D806" points="109.134575 39.5308693 112.769825 33.2341878 115.919325 35.0512688 112.284075 41.3479503"></polygon>
                    <polygon id="Fill-16" fill="#B6D806" points="116.41135 26.9226868 120.0466 20.6260053 123.1961 22.4430862 119.56085 28.7397677"></polygon>
                    <polygon id="Fill-18" fill="#B6D806" points="61.7178 35.0648888 64.8673 33.2478078 68.50255 39.5444893 65.35305 41.3615702"></polygon>
                    <polygon id="Fill-20" fill="#B6D806" points="54.4304 22.4687518 57.57965 20.651171 61.2159 26.9473527 58.06665 28.7646836"></polygon>
                    <polygon id="Fill-22" fill="#B6D806" points="76.25745 60.2474663 79.40695 58.4303853 83.0422 64.7270668 79.8927 66.5441478"></polygon>
                    <polygon id="Fill-24" fill="#B6D806" points="68.99075 47.6469809 72.14 45.8294001 75.77625 52.1255818 72.627 53.9429127"></polygon>
                    <mask id="mask-2" fill="white">
                        <use xlink:href="#path-1"></use>
                    </mask>
                    <g id="Clip-27"></g>
                    <polygon id="Fill-26" fill="#B6D806" mask="url(#mask-2)" points="23.28875 80.038529 30.5615 80.038529 30.5615 76.4036174 23.28875 76.4036174"></polygon>
                    <polygon id="Fill-28" fill="#B6D806" mask="url(#mask-2)" points="37.83425 80.038529 45.107 80.038529 45.107 76.4036174 37.83425 76.4036174"></polygon>
                    <polygon id="Fill-29" fill="#B6D806" mask="url(#mask-2)" points="66.925 80.038529 74.19775 80.038529 74.19775 76.4036174 66.925 76.4036174"></polygon>
                    <polygon id="Fill-30" fill="#B6D806" mask="url(#mask-2)" points="52.3795 80.038529 59.65225 80.038529 59.65225 76.4036174 52.3795 76.4036174"></polygon>
                    <polygon id="Fill-31" fill="#B6D806" mask="url(#mask-2)" points="54.44545 134.322866 58.0807 128.026184 61.2302 129.843265 57.59495 136.139947"></polygon>
                    <polygon id="Fill-32" fill="#B6D806" mask="url(#mask-2)" points="68.9966 109.147036 72.63185 102.850354 75.78135 104.667435 72.1461 110.964117"></polygon>
                    <polygon id="Fill-33" fill="#B6D806" mask="url(#mask-2)" points="61.71315 121.730403 65.3484 115.433721 68.4979 117.250802 64.86265 123.547484"></polygon>
                    <polygon id="Fill-34" fill="#B6D806" mask="url(#mask-2)" points="76.2643 96.5545726 79.89955 90.2578911 83.04905 92.0749721 79.4138 98.3716536"></polygon>
                    <polygon id="Fill-35" fill="#B6D806" mask="url(#mask-2)" points="109.1294 117.285914 112.2789 115.468833 115.91415 121.765515 112.76465 123.582596"></polygon>
                    <polygon id="Fill-36" fill="#B6D806" mask="url(#mask-2)" points="94.58065 92.1008875 97.73015 90.2838066 101.3654 96.5804881 98.2159 98.397569"></polygon>
                    <polygon id="Fill-37" fill="#B6D806" mask="url(#mask-2)" points="101.859375 104.691202 105.008625 102.873621 108.644875 109.169803 105.495625 110.987133"></polygon>
                    <polygon id="Fill-38" fill="#B6D806" mask="url(#mask-2)" points="116.41065 129.87183 119.5599 128.054249 123.19615 134.350431 120.0469 136.167762"></polygon>
                </g>
            </g>
        </g>
    </g>
</svg>

<svg width="178" height="157" viewBox="0 0 178 157" xmlns="http://www.w3.org/2000/svg" xmlns:xlink="http://www.w3.org/1999/xlink"><title>Page 1</title><defs><path id="a" d="M0 163.75h177.793V7.807H0z"/></defs><g fill="none" fill-rule="evenodd"><path fill="#B6D806" d="M103.289 80.039h7.272v-3.635h-7.272zM117.834 80.039h7.273v-3.635h-7.273zM132.38 80.039h7.272v-3.635h-7.272zM146.925 80.039h7.273v-3.635h-7.273z"/><g><path d="M171.943 82.365a4.162 4.162 0 0 1 0-8.306 4.162 4.162 0 0 1 0 8.306zm-38.182 70.774a4.129 4.129 0 0 1-2.945 1.218 4.163 4.163 0 0 1 0-8.306 4.163 4.163 0 0 1 2.945 7.088zm-83.345 0a4.129 4.129 0 0 1-2.946 1.218 4.163 4.163 0 0 1 0-8.306 4.163 4.163 0 0 1 2.946 7.088zM5.579 82.383a4.163 4.163 0 0 1 0-8.306 4.163 4.163 0 0 1 0 8.306zm38.964-79.08a4.128 4.128 0 0 1 2.946-1.217 4.162 4.162 0 0 1 0 8.306 4.145 4.145 0 0 1-2.946-7.089zm83.346 0a4.128 4.128 0 0 1 2.945-1.217 4.163 4.163 0 0 1 0 8.306 4.163 4.163 0 0 1-2.945-7.089zm2.018 49.655l-39.346-22.72 35.473-20.483.182.218-2.527 4.363 3.145 1.817 2.418-4.198.655.145v40.858zm-.818 91.566l-2.164-3.89-3.146 1.818 2.4 4.162-35.618-20.41 39.382-22.72v40.84c-.29.045-.575.112-.854.2zM10.216 81.856l36.036 20.883v41.621l-.309.091L9.998 82.22l.218-.364zM46.27 12.064v41.62L10.216 74.587l-.218-.272 35.945-62.341.327.09zm40.655 18.175L48.07 52.649V12.136h.382l2.346 4.072 3.145-1.818-2.254-3.907c.109-.11.2-.237.29-.364l34.946 20.12zm-75.673 49.8h4.764v-3.635h-4.764c0-.11 0-.237-.109-.346l35.11-20.265v44.856l-35.11-20.265c.036-.11.073-.236.11-.345zm118.655 21.337L88.743 125.15 48.07 101.685V54.74l40.673-23.446 41.164 23.773v46.31zM53.125 8.011h71.982v.09L88.743 29.148 52.98 8.556c.055-.164.11-.327.164-.51l-.018-.035zm-1.309 138.13l2.127-3.634-3.145-1.818-2.146 3.635h-.582v-40.53l38.855 22.41-34.927 20.138-.182-.2zm73.291 2.254H53.143c0-.163-.09-.345-.164-.509l35.764-20.592 36.364 21.01v.091zm42.145-66.412l.237.291-35.764 61.868V102.34l35.527-20.356zm-.909-5.834c0 .11 0 .218-.09.31h-4.783v3.634h4.764c0 .11 0 .218.091.309l-34.545 19.993V56.12l34.563 20.03zm.91-1.563l-35.528-20.574V12.209l35.764 62.014-.237.363zm8.872-.582a5.928 5.928 0 0 0-4.218-1.817 5.943 5.943 0 0 0-1.273.146l-35.709-61.796A5.96 5.96 0 0 0 130.835.25a5.963 5.963 0 0 0-5.728 4.162H53.143A5.89 5.89 0 0 0 47.47.25a5.98 5.98 0 0 0-6 5.961v.018a5.907 5.907 0 0 0 1.382 3.781L6.925 72.387a6.007 6.007 0 0 0-1.273-.145 5.98 5.98 0 0 0 0 11.94 5.943 5.943 0 0 0 1.273-.145l35.964 62.395a5.906 5.906 0 0 0-1.419 3.78 5.98 5.98 0 0 0 5.982 5.98h.018a5.89 5.89 0 0 0 5.655-4.162h71.982a5.963 5.963 0 0 0 5.654 4.162 5.98 5.98 0 0 0 4.219-10.196l-.128-.109 35.71-61.795c.417.094.844.142 1.272.145a5.98 5.98 0 0 0 4.218-10.196l.073-.037z" fill="#B6D806"/><path d="M88.743 69.915a8.308 8.308 0 0 1 8.306 8.31 8.308 8.308 0 0 1-8.306 8.302 8.308 8.308 0 0 1-8.305-8.31 8.307 8.307 0 0 1 8.305-8.302m-11.945 8.306c.01 6.59 5.352 11.931 11.945 11.941 6.597-.002 11.944-5.35 11.941-11.945-.002-6.592-5.347-11.935-11.94-11.937-6.594.01-11.936 5.35-11.946 11.941M94.581 64.716l3.635-6.297 3.15 1.817-3.635 6.297zM101.858 52.108l3.635-6.297 3.15 1.817-3.636 6.297zM109.135 39.53l3.635-6.296 3.15 1.817-3.636 6.297zM116.411 26.923l3.636-6.297 3.15 1.817-3.636 6.297zM61.718 35.065l3.15-1.817 3.635 6.296-3.15 1.818zM54.43 22.469l3.15-1.818 3.636 6.296-3.15 1.818zM76.257 60.247l3.15-1.817 3.635 6.297-3.15 1.817zM68.99 47.647l3.15-1.818 3.636 6.297-3.149 1.817z" fill="#B6D806"/><mask id="b" fill="#fff"><use xlink:href="#a"/></mask><path fill="#B6D806" mask="url(#b)" d="M23.289 80.039h7.272v-3.635H23.29zM37.834 80.039h7.273v-3.635h-7.273zM66.925 80.039h7.273v-3.635h-7.273zM52.38 80.039h7.272v-3.635H52.38zM54.445 134.323l3.636-6.297 3.15 1.817-3.636 6.297zM68.997 109.147l3.635-6.297 3.15 1.817-3.636 6.297zM61.713 121.73l3.635-6.296 3.15 1.817-3.635 6.296zM76.264 96.555l3.636-6.297 3.149 1.817-3.635 6.297zM109.13 117.286l3.149-1.817 3.635 6.297-3.15 1.817zM94.58 92.1l3.15-1.816 3.635 6.296-3.15 1.818zM101.86 104.691l3.149-1.817 3.636 6.296-3.15 1.817zM116.41 129.872l3.15-1.818 3.636 6.296-3.15 1.818z"/></g></g></svg>
